; generated by SuperSlicer 2.5.59 on 2023-04-01 at 15:41:36 UTC


;
;

;
;
; 

; external perimeters extrusion width = 0.44mm
; perimeters extrusion width = 0.46mm
; infill extrusion width = 0.56mm
; solid infill extrusion width = 0.46mm
; top infill extrusion width = 0.44mm
; first layer extrusion width = 0.60mm

; object:{"name":"Keychain-Whistle","id":"Keychain-Whistle.stl id:0 copy 0","object_center":[49.853924,63.000000,0.000000],"boundingbox_center":[49.853924,63.000000,2.500000],"boundingbox_size":[14.292152,48.892151,5.000000]}
EXCLUDE_OBJECT_DEFINE NAME=Keychain_Whistle_stl_id_0_copy_0 CENTER=49.853924,63.000000 POLYGON=[[42.707848,40.500000],[42.717216,40.309248],[42.745240,40.120340],[42.791644,39.935080],[42.855984,39.755268],[42.937636,39.582628],[43.035820,39.418816],[43.149584,39.265424],[43.277840,39.123916],[43.419344,38.995664],[43.572744,38.881896],[43.736548,38.783716],[43.909192,38.702060],[44.089008,38.637720],[44.274260,38.591316],[44.463172,38.563292],[44.653924,38.553924],[55.053924,38.553924],[55.244676,38.563292],[55.433588,38.591316],[55.618840,38.637720],[55.798656,38.702060],[55.971300,38.783716],[56.135104,38.881896],[56.288500,38.995664],[56.430008,39.123916],[56.558264,39.265424],[56.672028,39.418816],[56.770212,39.582628],[56.851864,39.755268],[56.916204,39.935080],[56.962608,40.120340],[56.990632,40.309248],[57.000000,40.500000],[57.000000,80.400000],[56.990344,80.768768],[56.961404,81.136520],[56.913252,81.502248],[56.846028,81.864960],[56.759912,82.223664],[56.655140,82.577360],[56.532000,82.925088],[56.390836,83.265896],[56.232024,83.598848],[56.056004,83.923032],[55.863264,84.237568],[55.654320,84.541584],[55.429752,84.834240],[55.190180,85.114744],[54.936252,85.382328],[54.668672,85.636256],[54.388164,85.875832],[54.095504,86.100392],[53.791492,86.309344],[53.476964,86.502080],[53.152776,86.678104],[52.819820,86.836912],[52.479012,86.978080],[52.131284,87.101208],[51.777584,87.205984],[51.418884,87.292096],[51.056172,87.359328],[50.690440,87.407480],[50.322684,87.436416],[49.953924,87.446072],[49.753924,87.446072],[49.385164,87.436416],[49.017408,87.407480],[48.651676,87.359328],[48.288964,87.292096],[47.930264,87.205984],[47.576564,87.101208],[47.228836,86.978080],[46.888028,86.836912],[46.555072,86.678104],[46.230884,86.502080],[45.916356,86.309344],[45.612344,86.100392],[45.319684,85.875832],[45.039176,85.636256],[44.771596,85.382328],[44.517668,85.114744],[44.278096,84.834240],[44.053528,84.541584],[43.844584,84.237568],[43.651844,83.923032],[43.475824,83.598848],[43.317012,83.265896],[43.175848,82.925088],[43.052708,82.577360],[42.947936,82.223664],[42.861820,81.864960],[42.794596,81.502248],[42.746444,81.136520],[42.717504,80.768768],[42.707848,80.400000],[42.707848,40.500000]]
; object:{"name":"Keychain-Whistle","id":"Keychain-Whistle.stl id:0 copy 1","object_center":[70.146076,63.000001,0.000000],"boundingbox_center":[70.146076,63.000001,2.500000],"boundingbox_size":[14.292152,48.892151,5.000000]}
EXCLUDE_OBJECT_DEFINE NAME=Keychain_Whistle_stl_id_0_copy_1 CENTER=70.146076,63.000001 POLYGON=[[62.999996,40.500000],[63.009368,40.309248],[63.037388,40.120340],[63.083792,39.935080],[63.148132,39.755268],[63.229788,39.582628],[63.327968,39.418816],[63.441736,39.265424],[63.569988,39.123916],[63.711496,38.995664],[63.864892,38.881896],[64.028700,38.783716],[64.201340,38.702060],[64.381156,38.637720],[64.566416,38.591316],[64.755324,38.563292],[64.946076,38.553924],[75.346072,38.553924],[75.536816,38.563292],[75.725728,38.591316],[75.910992,38.637720],[76.090808,38.702060],[76.263440,38.783716],[76.427256,38.881896],[76.580648,38.995664],[76.722152,39.123916],[76.850408,39.265424],[76.964176,39.418816],[77.062352,39.582628],[77.144016,39.755268],[77.208352,39.935080],[77.254752,40.120340],[77.282776,40.309248],[77.292144,40.500000],[77.292144,80.400000],[77.282496,80.768768],[77.253544,81.136520],[77.205400,81.502248],[77.138176,81.864960],[77.052064,82.223664],[76.947288,82.577360],[76.824152,82.925088],[76.682984,83.265896],[76.524168,83.598848],[76.348152,83.923032],[76.155408,84.237568],[75.946464,84.541584],[75.721904,84.834240],[75.482328,85.114744],[75.228400,85.382328],[74.960816,85.636256],[74.680312,85.875832],[74.387648,86.100392],[74.083640,86.309344],[73.769112,86.502080],[73.444920,86.678104],[73.111968,86.836912],[72.771168,86.978080],[72.423432,87.101208],[72.069736,87.205984],[71.711040,87.292096],[71.348320,87.359328],[70.982592,87.407480],[70.614840,87.436416],[70.246072,87.446072],[70.046072,87.446072],[69.677304,87.436416],[69.309552,87.407480],[68.943824,87.359328],[68.581112,87.292096],[68.222416,87.205984],[67.868712,87.101208],[67.520984,86.978080],[67.180176,86.836912],[66.847220,86.678104],[66.523032,86.502080],[66.208504,86.309344],[65.904496,86.100392],[65.611832,85.875832],[65.331328,85.636256],[65.063744,85.382328],[64.809816,85.114744],[64.570244,84.834240],[64.345680,84.541584],[64.136736,84.237568],[63.943992,83.923032],[63.767972,83.598848],[63.609160,83.265896],[63.467996,82.925088],[63.344856,82.577360],[63.240084,82.223664],[63.153968,81.864960],[63.086748,81.502248],[63.038596,81.136520],[63.009652,80.768768],[62.999996,80.400000],[62.999996,40.500000]]
; plater:{"center":[60.000000,63.000000,0.000000],"boundingbox_center":[60.000000,63.000000,2.500000],"boundingbox_size":[34.584304,48.892152,5.000000]}

M73 P0 R30
;TYPE:Custom
; custom gcode: start_gcode
M104 S0 ; Stops SuperSlicer from sending temp waits separately
M140 S0
M117
print_start HOTEND=220 BED=70 CHAMBER=0
; custom gcode end: start_gcode
M107
G21 ; set units to millimeters
G90 ; use absolute coordinates
M82 ; use absolute distances for extrusion
G92 E0
; custom gcode: start_filament_gcode
; Filament gcode
; custom gcode end: start_filament_gcode
;_TOOLCHANGE 0
;LAYER_CHANGE
;Z:0.24
;HEIGHT:0.24
; custom gcode: before_layer_gcode
;TIMELAPSE_TAKE_FRAME
;BEFORE_LAYER_CHANGE
;0.24

; custom gcode end: before_layer_gcode

G1 E-2.5 F1320
M73 P1 R30
G1 Z0.24 F30000
; custom gcode: layer_gcode
;AFTER_LAYER_CHANGE
;0.24
; custom gcode end: layer_gcode

M104 S220 ; set temperature
G92 E0
; printing object Keychain-Whistle.stl id:0 copy 0
EXCLUDE_OBJECT_START NAME=Keychain_Whistle_stl_id_0_copy_0
M204 S10000
G1 X56.059 Y39.897
G1 E2.5 F1320
;TYPE:External perimeter
;WIDTH:0.599999
G1 F1800
G1 X56.207 Y40.286 E2.52221
G1 X56.23 Y40.58 E2.53792
G1 X56.23 Y80.389 E4.65996
G1 X56.169 Y81.259 E4.70643
G1 X56.077 Y81.759 E4.73354
G1 X55.901 Y82.392 E4.76858
G1 X55.62 Y83.082 E4.80828
G1 X55.372 Y83.561 E4.83703
G1 X55.058 Y84.044 E4.86776
G1 X54.689 Y84.515 E4.89962
G1 X54.191 Y85.023 E4.93756
G1 X53.707 Y85.425 E4.97111
G1 X53.216 Y85.759 E5.00277
G1 X52.648 Y86.066 E5.03718
G1 X52.094 Y86.294 E5.06913
G1 X51.692 Y86.391 E5.09116
;WIDTH:0.669514
G1 X51.29 Y86.487 E5.11597
G1 X50.946 Y86.554 E5.13705
;WIDTH:0.606396
G1 X50.601 Y86.62 E5.15598
G1 X50.259 Y86.642 E5.17447
G1 X49.917 Y86.664 E5.19296
G1 X49.665 Y86.658 E5.20653
;WIDTH:0.643794
G1 X49.414 Y86.653 E5.22101
G1 X49.153 Y86.622 E5.23614
G1 X48.891 Y86.592 E5.25127
G1 X48.583 Y86.521 E5.26947
;WIDTH:0.703012
G1 X48.275 Y86.449 E5.2895
G1 X47.884 Y86.321 E5.31557
G1 X47.492 Y86.193 E5.34164
G1 X47.208 Y86.086 E5.3609
;WIDTH:0.599999
G1 X46.923 Y85.979 E5.37711
G1 X46.462 Y85.742 E5.40475
G1 X45.93 Y85.376 E5.43916
G1 X45.2 Y84.717 E5.49159
G1 X44.858 Y84.324 E5.51936
G1 X44.306 Y83.512 E5.57169
G1 X43.888 Y82.628 E5.62386
G1 X43.69 Y82.013 E5.65827
G1 X43.512 Y81.047 E5.71062
G1 X43.478 Y80.39 E5.74573
G1 X43.485 Y40.397 E7.87755
G1 X43.595 Y40 E7.89955
G1 X43.826 Y39.672 E7.92093
G1 X44.154 Y39.441 E7.94231
G1 X44.551 Y39.331 E7.96431
G1 X54.977 Y39.328 E8.52007
G1 X55.334 Y39.361 E8.53915
G1 X55.807 Y39.606 E8.56753
G1 X56.02 Y39.852 E8.58488
;WIPE_START
G1 X56.059 Y39.897 F30000
G1 X56.207 Y40.286
G1 X56.214 Y40.37
G1 X55.884 Y40.596
;WIPE_END
G92 E0
G1 E-1.75 F1320
;WIPE_START
G1 F24000
G1 X55.934 Y54.232 E-2.4625
;WIPE_END
G1 E-2.5 F1320
G1 X47.917 Y85.579 F30000
G1 E0 F1320
;WIDTH:0.735984
G1 F1800
G1 X48.019 Y85.631 E0.00757
G1 X48.12 Y85.683 E0.01514
G1 X48.374 Y85.795 E0.03362
;WIDTH:0.670975
G1 X48.628 Y85.908 E0.05034
G1 X48.899 Y85.978 E0.06716
;WIDTH:0.606396
G1 X49.169 Y86.048 E0.08224
G1 X49.496 Y86.079 E0.09994
G1 X49.823 Y86.111 E0.11764
;WIDTH:0.633044
G1 X49.885 Y86.111 E0.12118
G1 X50.239 Y86.075 E0.14126
G1 X50.592 Y86.039 E0.16133
G1 X50.864 Y85.964 E0.17725
;WIDTH:0.669514
G1 X51.135 Y85.89 E0.19417
G1 X51.214 Y85.84 E0.19979
;WIDTH:0.635562
G1 X51.293 Y85.79 E0.2051
G1 X51.544 Y85.637 E0.22177
;WIDTH:0.599999
G1 X51.795 Y85.484 E0.23743
G1 X52.261 Y85.087 E0.27005
G1 X52.723 Y84.482 E0.31067
G1 X52.981 Y83.984 E0.34051
G1 X53.18 Y83.249 E0.38111
G1 X53.222 Y82.543 E0.41883
G1 X53.158 Y81.981 E0.44898
G1 X52.978 Y81.39 E0.48189
G1 X52.638 Y80.762 E0.51993
G1 X52.21 Y80.25 E0.55554
G1 X51.688 Y79.832 E0.59116
G1 X51.137 Y79.541 E0.62437
G1 X50.493 Y79.348 E0.66024
G1 X49.776 Y79.288 E0.69858
G1 X49.113 Y79.373 E0.73424
G1 X48.517 Y79.564 E0.76759
G1 X47.979 Y79.863 E0.80038
G1 X47.423 Y80.325 E0.83895
G1 X47.043 Y80.807 E0.87164
G1 X46.709 Y81.445 E0.91002
G1 X46.552 Y81.983 E0.93992
G1 X46.519 Y82.263 E0.95492
G1 X46.482 Y82.812 E0.98425
G1 X46.572 Y83.453 E1.01877
G1 X46.748 Y84.036 E1.05123
G1 X47.036 Y84.569 E1.08353
G1 X47.486 Y85.128 E1.12176
G1 X47.594 Y85.241 E1.13008
;WIDTH:0.651252
G1 X47.702 Y85.353 E1.13918
;WIDTH:0.702505
G1 X47.809 Y85.466 E1.14906
;WIDTH:0.735984
G1 X47.876 Y85.536 E1.15545
;WIPE_START
G1 X47.917 Y85.579 F30000
G1 X48.019 Y85.631
G1 X48.12 Y85.683
G1 X48.369 Y85.793
G1 X48.412 Y86.191
;WIPE_END
G92 E0
G1 E-1.75 F1320
;WIPE_START
G1 F24000
G1 X48.848 Y86.171 E-1.77285
G1 X49.134 Y86.245 E-1.78828
G1 X49.477 Y86.278 E-1.80625
G1 X49.813 Y86.311 E-1.8239
G1 X49.895 Y86.311 E-1.82821
G1 X50.259 Y86.274 E-1.8473
G1 X50.629 Y86.236 E-1.86673
G1 X50.917 Y86.157 E-1.88232
G1 X51.217 Y86.075 E-1.8986
G1 X51.321 Y86.009 E-1.90505
G1 X51.399 Y85.96 E-1.90985
G1 X51.648 Y85.807 E-1.92511
G1 X51.912 Y85.646 E-1.94128
G1 X52.407 Y85.226 E-1.9752
G1 X52.893 Y84.589 E-2.01705
G1 X53.168 Y84.057 E-2.04833
G1 X53.378 Y83.282 E-2.09032
G1 X53.422 Y82.537 E-2.12927
G1 X53.355 Y81.94 E-2.16069
G1 X53.163 Y81.313 E-2.19495
G1 X52.805 Y80.65 E-2.23434
G1 X52.35 Y80.107 E-2.27133
G1 X51.799 Y79.664 E-2.30828
G1 X51.214 Y79.355 E-2.34284
G1 X50.53 Y79.15 E-2.38011
G1 X49.772 Y79.087 E-2.4199
G1 X49.069 Y79.177 E-2.45691
G1 X48.967 Y79.21 E-2.4625
;WIPE_END
G1 E-2.5 F1320
G1 X55.555 Y40.179 F30000
G1 E0 F1320
;TYPE:Internal perimeter
;WIDTH:0.599999
G1 F1800
G1 X55.63 Y40.312 E0.00816
G1 X55.681 Y40.58 E0.02271
G1 X55.681 Y80.37 E2.14373
G1 X55.634 Y81.054 E2.18028
G1 X55.547 Y81.618 E2.2107
G1 X55.388 Y82.197 E2.2427
G1 X55.176 Y82.744 E2.27403
G1 X54.907 Y83.269 E2.30544
G1 X54.623 Y83.709 E2.33338
G1 X54.291 Y84.137 E2.36221
G1 X53.835 Y84.606 E2.39711
G1 X53.253 Y85.071 E2.43683
G1 X52.701 Y85.415 E2.47147
G1 X52.879 Y85.19 E2.48677
G1 X53.208 Y84.739 E2.51654
G1 X53.507 Y84.138 E2.5523
G1 X53.726 Y83.301 E2.59841
G1 X53.778 Y82.586 E2.63665
G1 X53.714 Y81.973 E2.66948
G1 X53.549 Y81.368 E2.70291
G1 X53.342 Y80.908 E2.7298
G1 X53.062 Y80.414 E2.76008
G1 X52.556 Y79.825 E2.80146
G1 X51.948 Y79.349 E2.84259
G1 X51.3 Y79.017 E2.88143
G1 X50.543 Y78.802 E2.92336
G1 X49.71 Y78.744 E2.96789
G1 X48.95 Y78.849 E3.00881
G1 X48.254 Y79.082 E3.04792
G1 X47.632 Y79.438 E3.08613
G1 X46.995 Y79.983 E3.1308
G1 X46.56 Y80.549 E3.16886
G1 X46.183 Y81.291 E3.21325
G1 X46.026 Y81.83 E3.24315
G1 X45.973 Y82.207 E3.26346
G1 X45.937 Y82.868 E3.29875
G1 X46.046 Y83.607 E3.33855
G1 X46.264 Y84.293 E3.37694
G1 X46.606 Y84.91 E3.41455
G1 X46.993 Y85.398 E3.44777
G1 X46.744 Y85.27 E3.46273
G1 X46.271 Y84.945 E3.49333
G1 X45.715 Y84.443 E3.53326
G1 X45.294 Y83.989 E3.56627
G1 X44.784 Y83.239 E3.6146
G1 X44.399 Y82.425 E3.66259
G1 X44.223 Y81.879 E3.6932
G1 X44.058 Y80.983 E3.74174
G1 X44.026 Y80.375 E3.77418
G1 X44.034 Y40.564 E5.89636
G1 X44.058 Y40.383 E5.90614
G1 X44.159 Y40.151 E5.91958
G1 X44.391 Y39.944 E5.93617
G1 X44.626 Y39.88 E5.94913
G1 X54.977 Y39.876 E6.50095
G1 X55.178 Y39.892 E6.51165
G1 X55.484 Y40.051 E6.53005
G1 X55.526 Y40.126 E6.53465
G1 X55.099 Y40.458 F30000
G1 F1800
G1 X55.133 Y40.58 E6.54143
G1 X55.133 Y79.923 E8.63864
G1 X55.113 Y80.63 E8.67632
G1 X55.017 Y81.477 E8.72177
G1 X54.876 Y82.002 E8.75074
G1 X54.641 Y82.587 E8.78436
G1 X54.283 Y83.232 E8.82368
G1 X54.312 Y82.934 E8.83967
G1 X54.313 Y82.429 E8.86658
G1 X54.21 Y81.669 E8.90744
G1 X54.05 Y81.129 E8.93746
G1 X53.827 Y80.651 E8.96558
G1 X53.485 Y80.065 E9.00173
G1 X52.902 Y79.4 E9.0489
G1 X52.209 Y78.866 E9.09554
G1 X51.462 Y78.494 E9.14002
G1 X50.594 Y78.256 E9.18802
G1 X49.644 Y78.199 E9.23872
G1 X48.787 Y78.325 E9.28491
G1 X47.991 Y78.601 E9.32979
G1 X47.284 Y79.014 E9.37343
G1 X46.567 Y79.64 E9.42421
G1 X46.215 Y80.08 E9.45423
G1 X45.874 Y80.669 E9.49051
G1 X45.656 Y81.138 E9.51807
G1 X45.451 Y81.921 E9.56122
G1 X45.384 Y82.579 E9.59648
G1 X45.419 Y83.198 E9.62954
G1 X45.261 Y82.966 E9.64451
G1 X44.91 Y82.223 E9.68831
G1 X44.756 Y81.745 E9.71511
G1 X44.604 Y80.919 E9.75986
G1 X44.575 Y80.361 E9.78963
G1 X44.582 Y40.564 E11.91105
G1 X44.599 Y40.485 E11.9154
G1 X44.7 Y40.428 E11.92156
G1 X54.978 Y40.425 E12.46942
G1 X55.041 Y40.442 E12.47291
G1 X53.849 Y40.601 F30000
;TYPE:Solid infill
;WIDTH:0.597588
G1 F1800
G1 X54.722 Y41.473 E12.53843
G1 X54.722 Y42.249 E12.57961
G1 X53.309 Y40.837 E12.68564
G1 X52.534 Y40.837 E12.72681
G1 X54.722 Y43.025 E12.89107
G1 X54.722 Y43.8 E12.93225
G1 X51.759 Y40.837 E13.15473
G1 X50.983 Y40.838 E13.1959
G1 X54.722 Y44.576 E13.4766
G1 X54.722 Y45.352 E13.51778
G1 X50.208 Y40.838 E13.85671
G1 X49.432 Y40.838 E13.89788
G1 X54.722 Y46.128 E14.29503
G1 X54.722 Y46.903 E14.33621
G1 X48.657 Y40.838 E14.79158
G1 X47.881 Y40.839 E14.83275
G1 X54.722 Y47.679 E15.34634
G1 X54.722 Y48.455 E15.38753
G1 X47.106 Y40.839 E15.95934
M73 P2 R30
G1 X46.33 Y40.839 E16.00051
G1 X54.722 Y49.23 E16.63055
G1 X54.722 Y50.006 E16.67174
G1 X45.555 Y40.839 E17.36
G1 X44.993 Y40.839 E17.38981
G1 X44.993 Y41.053 E17.40117
G1 X54.722 Y50.782 E18.1316
G1 X54.722 Y51.557 E18.17278
G1 X44.993 Y41.829 E18.90322
G1 X44.993 Y42.605 E18.94439
G1 X54.722 Y52.333 E19.67484
G1 X54.722 Y53.109 E19.71602
G1 X44.993 Y43.38 E20.44648
G1 X44.993 Y44.156 E20.48766
G1 X54.722 Y53.884 E21.21812
G1 X54.722 Y54.66 E21.25931
G1 X44.993 Y44.931 E21.98979
G1 X44.993 Y45.707 E22.03096
G1 X54.722 Y55.436 E22.76145
G1 X54.722 Y56.211 E22.80263
G1 X44.992 Y46.482 E23.53314
G1 X44.992 Y47.258 E23.57431
G1 X54.722 Y56.987 E24.30482
G1 X54.722 Y57.763 E24.346
G1 X44.992 Y48.033 E25.07653
G1 X44.992 Y48.809 E25.1177
G1 X54.722 Y58.539 E25.84823
G1 X54.722 Y59.314 E25.88942
G1 X44.992 Y49.584 E26.61996
G1 X44.992 Y50.36 E26.66114
G1 X54.722 Y60.09 E27.39169
G1 X54.722 Y60.866 E27.43287
G1 X44.992 Y51.136 E28.16344
G1 X44.991 Y51.911 E28.20461
G1 X54.722 Y61.641 E28.93519
G1 X54.722 Y62.417 E28.97637
G1 X44.991 Y52.687 E29.70696
G1 X44.991 Y53.462 E29.74813
G1 X54.722 Y63.193 E30.47873
G1 X54.722 Y63.968 E30.51991
G1 X44.991 Y54.238 E31.25052
G1 X44.991 Y55.013 E31.29169
G1 X54.722 Y64.744 E32.02231
G1 X54.722 Y65.52 E32.06349
G1 X44.991 Y55.789 E32.79412
G1 X44.991 Y56.564 E32.8353
G1 X54.722 Y66.295 E33.56594
G1 X54.722 Y67.071 E33.60712
G1 X44.99 Y57.34 E34.33777
G1 X44.99 Y58.115 E34.37894
G1 X54.722 Y67.847 E35.1096
G1 X54.722 Y68.622 E35.15079
G1 X44.99 Y58.891 E35.88146
G1 X44.99 Y59.667 E35.92263
G1 X54.722 Y69.398 E36.65331
G1 X54.722 Y70.174 E36.6945
G1 X44.99 Y60.442 E37.42519
G1 X44.99 Y61.218 E37.46636
G1 X54.722 Y70.95 E38.19707
G1 X54.722 Y71.725 E38.23825
G1 X44.99 Y61.993 E38.96896
G1 X44.989 Y62.769 E39.01014
G1 X54.722 Y72.501 E39.74086
G1 X54.722 Y73.277 E39.78204
G1 X44.989 Y63.544 E40.51278
G1 X44.989 Y64.32 E40.55395
G1 X54.722 Y74.052 E41.2847
G1 X54.722 Y74.828 E41.32588
G1 X44.989 Y65.095 E42.05664
G1 X44.989 Y65.871 E42.09781
G1 X54.722 Y75.604 E42.82858
G1 X54.722 Y76.379 E42.86976
G1 X44.989 Y66.646 E43.60054
